actions/22x22-light/insert-text.svg

<svg viewBox="0 0 22 22" xmlns="http://www.w3.org/2000/svg"><path d="m3 3v1 2h1v-2h4v9h-1v1h3v-1h-1v-9h4v2h1v-3h-10zm13 11v2h-2v1h2v2h1v-2h2v-1h-2v-2z" fill="#4d4d4d"/></svg>

<svg xmlns="http://www.w3.org/2000/svg" viewBox="0 0 22 22">
  <defs id="defs3051">
    <style type="text/css" id="current-color-scheme">
      .ColorScheme-Text {
        color:#4d4d4d;
      }
      </style>
  </defs>
 <path 
     style="fill:currentColor;fill-opacity:1;stroke:none" 
     d="M 3 3 L 3 4 L 3 6 L 4 6 L 4 4 L 8 4 L 8 13 L 7 13 L 7 14 L 10 14 L 10 13 L 9 13 L 9 4 L 13 4 L 13 6 L 14 6 L 14 3 L 4 3 L 3 3 z M 16 14 L 16 16 L 14 16 L 14 17 L 16 17 L 16 19 L 17 19 L 17 17 L 19 17 L 19 16 L 17 16 L 17 14 L 16 14 z "
     class="ColorScheme-Text"
     />
</svg>
